src/assets/flags/kn.svg

<?xml version="1.0" encoding="UTF-8"?>
<svg xmlns="http://www.w3.org/2000/svg" xmlns:xlink="http://www.w3.org/1999/xlink" width="25px" height="px" viewBox="0 0 25 19" version="1.1">
<g id="surface1">
<path style=" stroke:none;fill-rule:evenodd;fill:rgb(100%,91.37255%,0%);fill-opacity:1;" d="M -1.015625 0.0078125 L 25.996094 0.0078125 L 25.996094 18.980469 L -1.015625 18.980469 Z M -1.015625 0.0078125 "/>
<path style=" stroke:none;fill-rule:evenodd;fill:rgb(20.784314%,63.137257%,0%);fill-opacity:1;" d="M -1.027344 0.0078125 L -1 13.6875 L 20.019531 0 Z M -1.027344 0.0078125 "/>
<path style=" stroke:none;fill-rule:evenodd;fill:rgb(78.039217%,0%,0%);fill-opacity:1;" d="M 26.03125 18.980469 L 25.980469 4.761719 L 4.777344 18.992188 Z M 26.03125 18.980469 "/>
<path style=" stroke:none;fill-rule:evenodd;fill:rgb(0%,0%,0.392157%);fill-opacity:1;" d="M -1.019531 14.71875 L -1 19 L 3.589844 18.992188 L 25.988281 3.773438 L 25.96875 0.0507812 L 21.433594 0.0078125 Z M -1.019531 14.71875 "/>
<path style=" stroke:none;fill-rule:evenodd;fill:rgb(100%,100%,100%);fill-opacity:1;" d="M 16.863281 5.8125 L 16.503906 4.246094 L 17.726562 5.246094 L 19.117188 4.335938 L 18.480469 5.867188 L 19.703125 6.867188 L 18.082031 6.8125 L 17.449219 8.347656 L 17.085938 6.78125 L 15.472656 6.722656 Z M 6.785156 12.453125 L 6.421875 10.882812 L 7.644531 11.886719 L 9.035156 10.972656 L 8.398438 12.507812 L 9.621094 13.507812 L 8.003906 13.453125 L 7.367188 14.984375 L 7.007812 13.417969 L 5.394531 13.363281 Z M 6.785156 12.453125 "/>
</g>
</svg>

<svg xmlns="http://www.w3.org/2000/svg" width="25" height="px" viewBox="0 0 25 19"><path d="M-1.016.008h27.012V18.98H-1.016Zm0 0" style="stroke:none;fill-rule:evenodd;fill:#ffe900;fill-opacity:1"/><path d="M-1.027.008-1 13.688 20.02 0Zm0 0" style="stroke:none;fill-rule:evenodd;fill:#35a100;fill-opacity:1"/><path d="m26.031 18.98-.05-14.218-21.204 14.23Zm0 0" style="stroke:none;fill-rule:evenodd;fill:#c70000;fill-opacity:1"/><path d="M-1.02 14.719-1 19l4.59-.008L25.988 3.773l-.02-3.722-4.534-.043Zm0 0" style="stroke:none;fill-rule:evenodd;fill:#000001;fill-opacity:1"/><path d="m16.863 5.813-.36-1.567 1.224 1 1.39-.91-.637 1.531 1.223 1-1.621-.054-.633 1.535-.363-1.567-1.613-.058Zm-10.078 6.64-.363-1.57 1.223 1.004 1.39-.914-.637 1.535 1.223 1-1.617-.055-.637 1.531-.36-1.566-1.612-.055Zm0 0" style="stroke:none;fill-rule:evenodd;fill:#fff;fill-opacity:1"/></svg>
